flaticon/emoticons/tired-3.svg

<svg xmlns="http://www.w3.org/2000/svg" width="32" height="32" viewBox="0 0 24 24">
    <path d="M18.304688 16.789062C18.082031 16.789062 17.898438 16.96875 17.898438 17.195312 17.898438 17.300781 17.878906 17.402344 17.847656 17.5 14.359375 15.871094 10.195312 17.175781 8.257812 20.496094 8.179688 20.351562 8.132812 20.191406 8.132812 20.015625 8.132812 19.792969 7.949219 19.609375 7.726562 19.609375 7.5 19.609375 7.316406 19.792969 7.316406 20.015625 7.316406 21.019531 8.132812 21.835938 9.136719 21.835938 9.359375 21.835938 9.542969 21.652344 9.542969 21.425781 9.542969 21.203125 9.359375 21.019531 9.136719 21.019531 9.058594 21.019531 8.980469 21.007812 8.90625 20.992188 10.566406 18.046875 14.175781 16.832031 17.261719 18.125 17.148438 18.171875 17.023438 18.199219 16.894531 18.199219 16.667969 18.199219 16.488281 18.378906 16.488281 18.605469 16.488281 18.832031 16.667969 19.011719 16.894531 19.011719 17.894531 19.011719 18.710938 18.199219 18.710938 17.195312 18.710938 16.96875 18.53125 16.789062 18.304688 16.789062zM9.484375 15.824219C10.703125 15.382812 11.480469 14.257812 11.542969 13.039062L11.558594 13.035156 11.542969 12.734375C11.542969 12.730469 11.542969 12.722656 11.542969 12.71875 11.535156 12.585938 11.515625 12.453125 11.492188 12.324219 11.488281 12.289062 11.480469 12.253906 11.472656 12.222656 11.445312 12.085938 11.410156 11.953125 11.359375 11.816406 11.277344 11.59375 11.175781 11.386719 11.050781 11.195312 11.050781 11.195312 11.046875 11.191406 11.046875 11.191406L10.871094 10.917969 10.855469 10.925781C10.039062 9.910156 8.640625 9.476562 7.351562 9.941406 6.566406 10.226562 5.9375 10.800781 5.585938 11.554688 5.378906 11.996094 5.28125 12.464844 5.289062 12.9375L5.273438 12.945312 5.3125 13.265625C5.328125 13.382812 5.347656 13.496094 5.375 13.609375 5.375 13.613281 5.375 13.617188 5.375 13.617188 5.402344 13.730469 5.433594 13.839844 5.476562 13.949219 5.53125 14.101562 5.597656 14.246094 5.675781 14.390625 5.707031 14.445312 5.742188 14.496094 5.777344 14.546875 5.824219 14.621094 5.867188 14.699219 5.921875 14.769531L6.101562 15.011719 6.125 15C6.714844 15.636719 7.546875 16.011719 8.421875 16.011719 8.773438 16.011719 9.132812 15.953125 9.484375 15.824219zM6.410156 14.03125C6.40625 14.023438 6.398438 14.011719 6.390625 14 6.335938 13.894531 6.28125 13.785156 6.242188 13.671875 6.21875 13.609375 6.207031 13.542969 6.191406 13.476562L7.472656 13.011719C7.472656 13.035156 7.472656 13.054688 7.472656 13.078125 7.492188 13.273438 7.589844 13.441406 7.730469 13.554688zM8.878906 12.9375C8.863281 12.792969 8.804688 12.664062 8.722656 12.558594L10.511719 11.914062C10.539062 11.972656 10.570312 12.03125 10.59375 12.09375 10.636719 12.207031 10.664062 12.324219 10.6875 12.441406 10.691406 12.453125 10.695312 12.46875 10.695312 12.480469L8.863281 13.144531C8.878906 13.078125 8.882812 13.007812 8.878906 12.9375zM6.320312 11.902344C6.582031 11.339844 7.046875 10.917969 7.628906 10.707031 7.890625 10.613281 8.15625 10.566406 8.414062 10.566406 9.019531 10.566406 9.597656 10.804688 10.027344 11.222656L6.125 12.636719C6.152344 12.386719 6.210938 12.136719 6.320312 11.902344zM10.683594 13.351562C10.523438 14.113281 9.988281 14.777344 9.207031 15.058594 8.425781 15.34375 7.585938 15.175781 6.980469 14.691406zM19.003906 11.691406C19.003906 11.585938 19 11.480469 18.988281 11.382812 18.972656 11.226562 18.945312 11.070312 18.910156 10.917969 18.902344 10.898438 18.898438 10.878906 18.894531 10.859375 18.855469 10.710938 18.8125 10.566406 18.757812 10.425781 18.757812 10.421875 18.753906 10.417969 18.753906 10.414062L18.738281 10.375C18.726562 10.34375 18.714844 10.308594 18.703125 10.277344L18.644531 10.125 18.628906 10.125C17.960938 8.75 16.484375 7.863281 14.871094 8.023438 13.261719 8.183594 11.992188 9.347656 11.613281 10.832031L11.597656 10.835938 11.570312 11C11.566406 11.027344 11.5625 11.054688 11.558594 11.078125L11.546875 11.140625C11.546875 11.144531 11.546875 11.152344 11.546875 11.15625 11.523438 11.304688 11.507812 11.453125 11.5 11.601562 11.5 11.625 11.496094 11.648438 11.496094 11.671875 11.492188 11.824219 11.496094 11.980469 11.511719 12.136719 11.519531 12.230469 11.535156 12.328125 11.554688 12.429688 11.582031 12.578125 11.617188 12.722656 11.660156 12.863281L11.710938 13.058594 11.726562 13.058594C12.261719 14.511719 13.660156 15.519531 15.246094 15.519531 15.371094 15.519531 15.5 15.511719 15.625 15.5 17.367188 15.324219 18.707031 13.980469 18.960938 12.328125L18.976562 12.324219 18.988281 12.144531C18.988281 12.128906 18.988281 12.109375 18.988281 12.09375L18.996094 11.976562C18.996094 11.96875 18.996094 11.964844 18.996094 11.957031 19.003906 11.867188 19.003906 11.78125 19.003906 11.691406zM12.320312 12.058594C12.304688 11.90625 12.304688 11.753906 12.3125 11.601562 12.316406 11.59375 12.316406 11.585938 12.316406 11.582031L14.808594 11.328125C14.777344 11.421875 14.761719 11.527344 14.773438 11.632812 14.78125 11.738281 14.820312 11.835938 14.871094 11.921875L12.339844 12.179688C12.332031 12.136719 12.324219 12.097656 12.320312 12.058594zM16.175781 11.492188C16.164062 11.382812 16.128906 11.285156 16.078125 11.199219L18.089844 10.996094C18.089844 11 18.089844 11 18.09375 11.003906 18.132812 11.15625 18.164062 11.3125 18.179688 11.464844 18.183594 11.507812 18.183594 11.546875 18.183594 11.589844L16.136719 11.792969C16.171875 11.699219 16.1875 11.597656 16.175781 11.492188zM14.953125 8.832031C15.054688 8.820312 15.152344 8.816406 15.253906 8.816406 16.289062 8.816406 17.226562 9.367188 17.75 10.214844L12.492188 10.746094C12.871094 9.722656 13.800781 8.949219 14.953125 8.832031zM15.546875 14.691406C14.257812 14.824219 13.078125 14.09375 12.570312 12.972656L18.117188 12.410156C17.84375 13.609375 16.835938 14.558594 15.546875 14.691406zM15.546875 14.691406"/>
    <path d="M 12 0 C 6.054688 0 1.21875 4.835938 1.21875 10.78125 L 1.21875 15.246094 C 1.21875 15.25 1.21875 15.25 1.21875 15.25 C 1.21875 15.25 1.21875 15.253906 1.21875 15.253906 L 1.21875 20.746094 C 1.21875 21.867188 2.132812 22.78125 3.253906 22.78125 L 5.917969 22.78125 C 5.9375 22.789062 5.957031 22.796875 5.976562 22.804688 C 7.402344 23.476562 9.121094 23.878906 11.078125 23.976562 C 11.121094 23.976562 11.164062 23.980469 11.210938 23.980469 C 11.46875 23.992188 11.730469 24 12 24 C 12.269531 24 12.53125 23.992188 12.792969 23.980469 C 12.835938 23.980469 12.878906 23.976562 12.921875 23.976562 C 14.878906 23.878906 16.597656 23.476562 18.023438 22.804688 C 18.042969 22.796875 18.0625 22.789062 18.082031 22.777344 L 20.746094 22.777344 C 21.867188 22.777344 22.78125 21.867188 22.78125 20.746094 L 22.78125 10.78125 C 22.78125 4.835938 17.945312 0 12 0 Z M 17.894531 21.964844 L 17.8125 22.007812 C 16.660156 22.566406 15.289062 22.929688 13.777344 23.089844 C 13.667969 23.101562 13.558594 23.113281 13.445312 23.125 C 13.285156 23.136719 13.125 23.148438 12.960938 23.15625 C 12.648438 23.175781 12.328125 23.1875 12 23.1875 C 11.671875 23.1875 11.351562 23.175781 11.039062 23.15625 C 10.875 23.148438 10.714844 23.136719 10.554688 23.121094 C 10.441406 23.113281 10.332031 23.101562 10.222656 23.089844 C 8.710938 22.929688 7.339844 22.566406 6.1875 22.007812 L 6.105469 21.964844 L 6.066406 21.964844 C 3.476562 20.65625 2.035156 18.34375 2.035156 15.253906 C 2.035156 15.253906 2.035156 15.25 2.035156 15.25 C 2.035156 15.25 2.035156 15.25 2.035156 15.246094 C 2.039062 10.019531 6.425781 5.550781 11.796875 5.289062 L 12.183594 5.289062 C 17.578125 5.550781 21.964844 10.023438 21.964844 15.253906 C 21.964844 18.34375 20.523438 20.65625 17.933594 21.964844 Z M 3.253906 21.964844 C 2.582031 21.964844 2.035156 21.417969 2.035156 20.746094 L 2.035156 19.027344 C 2.597656 20.195312 3.441406 21.1875 4.535156 21.964844 Z M 21.964844 20.746094 C 21.964844 21.417969 21.417969 21.964844 20.746094 21.964844 L 19.464844 21.964844 C 20.558594 21.1875 21.402344 20.195312 21.964844 19.027344 Z M 12.203125 4.472656 L 11.777344 4.476562 C 7.390625 4.691406 3.625 7.492188 2.035156 11.28125 L 2.035156 10.78125 C 2.035156 5.285156 6.503906 0.8125 12 0.8125 C 17.496094 0.8125 21.964844 5.285156 21.964844 10.78125 L 21.964844 11.265625 C 20.371094 7.484375 16.601562 4.6875 12.203125 4.472656 Z M 12.203125 4.472656"/>
</svg>

<svg xmlns="http://www.w3.org/2000/svg" width="32" height="32" viewBox="0 0 24 24">
    <path d="M18.305 16.79a.406.406 0 0 0-.407.405c0 .106-.02.207-.05.305a7.46 7.46 0 0 0-9.59 2.996 1 1 0 0 1-.125-.48.408.408 0 0 0-.817 0c0 1.004.817 1.82 1.82 1.82a.408.408 0 0 0 0-.816c-.077 0-.156-.012-.23-.028a6.655 6.655 0 0 1 8.356-2.867.963.963 0 0 1-.367.074.403.403 0 0 0-.407.406c0 .227.18.407.407.407 1 0 1.816-.813 1.816-1.817a.403.403 0 0 0-.406-.406zm0 0M9.484 15.824a3.133 3.133 0 0 0 2.059-2.785l.016-.004-.016-.3v-.016a3.3 3.3 0 0 0-.07-.496 2.63 2.63 0 0 0-.114-.407 3.07 3.07 0 0 0-.308-.62l-.004-.005-.176-.273-.016.008a3.134 3.134 0 0 0-3.503-.985 3.106 3.106 0 0 0-1.766 1.614c-.207.441-.305.91-.297 1.383l-.016.007.04.32c.015.118.035.231.062.344v.008a3.186 3.186 0 0 0 .3.773c.032.055.067.106.102.157.047.074.09.152.145.223l.18.242.023-.012a3.14 3.14 0 0 0 2.297 1.012c.351 0 .71-.059 1.062-.188zM6.41 14.031a2.48 2.48 0 0 1-.168-.36c-.023-.062-.035-.128-.05-.194l1.28-.465v.066a.7.7 0 0 0 .258.477zm2.469-1.094a.748.748 0 0 0-.156-.378l1.789-.645c.027.059.058.117.082.18a2.178 2.178 0 0 1 .101.386l-1.832.665a.73.73 0 0 0 .016-.207zM6.32 11.902a2.332 2.332 0 0 1 2.094-1.336c.606 0 1.184.239 1.613.657l-3.902 1.414c.027-.25.086-.5.195-.735zm4.364 1.45a2.312 2.312 0 0 1-1.477 1.707 2.302 2.302 0 0 1-2.227-.368zm0 0M19.004 11.691c0-.105-.004-.21-.016-.308a3.724 3.724 0 0 0-.078-.465 3.997 3.997 0 0 0-.152-.492c0-.004-.004-.008-.004-.012l-.016-.039-.035-.098-.058-.152h-.016a3.768 3.768 0 0 0-3.758-2.102 3.752 3.752 0 0 0-3.258 2.809l-.015.004-.028.164a3.585 3.585 0 0 1-.011.078l-.012.063v.015c-.024.149-.04.297-.047.446 0 .023-.004.046-.004.07-.004.152 0 .308.016.465a3.9 3.9 0 0 0 .148.727l.05.195h.017a3.765 3.765 0 0 0 3.898 2.441 3.763 3.763 0 0 0 3.336-3.172l.016-.004.011-.18v-.05l.008-.117v-.02c.008-.09.008-.176.008-.266zm-6.684.368a2.977 2.977 0 0 1-.008-.457c.004-.008.004-.016.004-.02l2.493-.254a.72.72 0 0 0-.036.305.67.67 0 0 0 .098.289l-2.531.258c-.008-.043-.016-.082-.02-.121zm3.856-.567a.723.723 0 0 0-.098-.293l2.012-.203a3.185 3.185 0 0 1 .09.469c.004.043.004.082.004.125l-2.047.203a.648.648 0 0 0 .039-.3zm-1.223-2.66a2.943 2.943 0 0 1 2.797 1.383l-5.258.531a2.945 2.945 0 0 1 2.461-1.914zm.594 5.86a2.944 2.944 0 0 1-2.977-1.72l5.547-.562a2.95 2.95 0 0 1-2.57 2.281zm0 0"/>
    <path d="M12 0C6.055 0 1.219 4.836 1.219 10.781v9.965c0 1.121.914 2.035 2.035 2.035h2.664l.059.024c1.425.672 3.144 1.074 5.101 1.172.043 0 .086.003.133.003.258.012.52.02.789.02.27 0 .531-.008.793-.02l.129-.003c1.957-.098 3.676-.5 5.101-1.172.02-.008.04-.016.059-.028h2.664c1.121 0 2.035-.91 2.035-2.03V10.78C22.781 4.836 17.945 0 12 0zm5.895 21.965l-.082.043c-1.153.558-2.524.922-4.036 1.082l-.332.035c-.16.012-.32.023-.484.031a15.386 15.386 0 0 1-2.406-.035c-.114-.008-.223-.02-.332-.031-1.512-.16-2.883-.524-4.036-1.082l-.082-.043h-.039c-2.59-1.309-4.03-3.621-4.03-6.711v-.004-.004c.003-5.226 4.39-9.695 9.76-9.957h.388c5.394.262 9.78 4.734 9.78 9.965 0 3.09-1.44 5.402-4.03 6.71zm-14.641 0a1.22 1.22 0 0 1-1.219-1.219v-1.719a7.663 7.663 0 0 0 2.5 2.938zm18.71-1.219a1.22 1.22 0 0 1-1.218 1.219h-1.281a7.663 7.663 0 0 0 2.5-2.938zm-9.76-16.273l-.427.004c-4.386.214-8.152 3.015-9.742 6.804v-.5C2.035 5.285 6.504.812 12 .812c5.496 0 9.965 4.473 9.965 9.97v.484c-1.594-3.782-5.363-6.579-9.762-6.793zm0 0"/>
</svg>
